dapp/src/images/eth-logo.svg

<svg fill="none" height="25" viewBox="0 0 16 25" width="16" xmlns="http://www.w3.org/2000/svg" xmlns:xlink="http://www.w3.org/1999/xlink"><linearGradient id="a"><stop offset="0" stop-color="#717b90"/><stop offset=".854167" stop-color="#5f6779"/></linearGradient><linearGradient id="b" gradientUnits="userSpaceOnUse" x1="4.41651" x2="3.79546" xlink:href="#a" y1=".067383" y2="17.0372"/><linearGradient id="c" gradientUnits="userSpaceOnUse" x1="11.8876" x2="11.253" xlink:href="#a" y1=".067383" y2="17.0362"/><linearGradient id="d" gradientUnits="userSpaceOnUse" x1="4.38185" x2="4.13597" xlink:href="#a" y1="14.0217" y2="24.6568"/><linearGradient id="e" gradientUnits="userSpaceOnUse" x1="11.8856" x2="11.6366" xlink:href="#a" y1="14.0217" y2="24.6567"/><linearGradient id="f" gradientUnits="userSpaceOnUse" x1="4.34081" x2="4.20365" xlink:href="#a" y1="9.15942" y2="17.0527"/><linearGradient id="g" gradientUnits="userSpaceOnUse" x1="11.8856" x2="11.7485" xlink:href="#a" y1="9.15942" y2="17.0527"/><path d="m8.10843.0673828.16501.5604922v16.262725l-.16501.1647-7.548838-4.4622z" fill="url(#b)"/><path d="m8.10843.0673828.16501.5604922v16.262725l-.16501.1647-7.548838-4.4622z" fill="#fff"/><path d="m8.11308.0673828 7.54902 12.5257172-7.54902 4.4622v-7.89354z" fill="url(#c)"/><path d="m8.11308.0673828 7.54902 12.5257172-7.54902 4.4622v-7.89354z" fill="#fff"/><path d="m8.11208 18.4816.093.1134v5.793l-.093.2715-7.553457-10.6378z" fill="url(#d)"/><path d="m8.11208 18.4816.093.1134v5.793l-.093.2715-7.553457-10.6378z" fill="#fff"/><path d="m8.11113 24.6595v-6.1779l7.54907-4.4599z" fill="url(#e)"/><path d="m8.11113 24.6595v-6.1779l7.54907-4.4599z" fill="#fff"/><path d="m8.11523 17.0529-7.548831-4.4622 7.548831-3.43128z" fill="url(#f)"/><path d="m8.11523 17.0529-7.548831-4.4622 7.548831-3.43128z" fill="#fff"/><path d="m15.6602 12.5907-7.54907 4.4622v-7.89348z" fill="url(#g)"/><path d="m15.6602 12.5907-7.54907 4.4622v-7.89348z" fill="#fff"/></svg>

<svg width="16" height="25" viewBox="0 0 16 25" fill="none" xmlns="http://www.w3.org/2000/svg">
<path d="M8.10843 0.0673828L8.27344 0.627875V16.8906L8.10843 17.0553L0.559592 12.5931L8.10843 0.0673828Z" fill="url(#paint0_linear_8630_4497)"/>
<path d="M8.10843 0.0673828L8.27344 0.627875V16.8906L8.10843 17.0553L0.559592 12.5931L8.10843 0.0673828Z" fill="white"/>
<path d="M8.11308 0.0673828L15.6621 12.5931L8.11308 17.0553V9.16176V0.0673828Z" fill="url(#paint1_linear_8630_4497)"/>
<path d="M8.11308 0.0673828L15.6621 12.5931L8.11308 17.0553V9.16176V0.0673828Z" fill="white"/>
<path d="M8.11208 18.4816L8.20508 18.595V24.388L8.11208 24.6595L0.558623 14.0217L8.11208 18.4816Z" fill="url(#paint2_linear_8630_4497)"/>
<path d="M8.11208 18.4816L8.20508 18.595V24.388L8.11208 24.6595L0.558623 14.0217L8.11208 18.4816Z" fill="white"/>
<path d="M8.11113 24.6595V18.4816L15.6602 14.0217L8.11113 24.6595Z" fill="url(#paint3_linear_8630_4497)"/>
<path d="M8.11113 24.6595V18.4816L15.6602 14.0217L8.11113 24.6595Z" fill="white"/>
<path d="M8.11523 17.0529L0.566399 12.5907L8.11523 9.15942V17.0529Z" fill="url(#paint4_linear_8630_4497)"/>
<path d="M8.11523 17.0529L0.566399 12.5907L8.11523 9.15942V17.0529Z" fill="white"/>
<path d="M15.6602 12.5907L8.11113 17.0529V9.15942L15.6602 12.5907Z" fill="url(#paint5_linear_8630_4497)"/>
<path d="M15.6602 12.5907L8.11113 17.0529V9.15942L15.6602 12.5907Z" fill="white"/>
<defs>
<linearGradient id="paint0_linear_8630_4497" x1="4.41651" y1="0.0673828" x2="3.79546" y2="17.0372" gradientUnits="userSpaceOnUse">
<stop stop-color="#717B90"/>
<stop offset="0.854167" stop-color="#5F6779"/>
</linearGradient>
<linearGradient id="paint1_linear_8630_4497" x1="11.8876" y1="0.0673828" x2="11.253" y2="17.0362" gradientUnits="userSpaceOnUse">
<stop stop-color="#717B90"/>
<stop offset="0.854167" stop-color="#5F6779"/>
</linearGradient>
<linearGradient id="paint2_linear_8630_4497" x1="4.38185" y1="14.0217" x2="4.13597" y2="24.6568" gradientUnits="userSpaceOnUse">
<stop stop-color="#717B90"/>
<stop offset="0.854167" stop-color="#5F6779"/>
</linearGradient>
<linearGradient id="paint3_linear_8630_4497" x1="11.8856" y1="14.0217" x2="11.6366" y2="24.6567" gradientUnits="userSpaceOnUse">
<stop stop-color="#717B90"/>
<stop offset="0.854167" stop-color="#5F6779"/>
</linearGradient>
<linearGradient id="paint4_linear_8630_4497" x1="4.34081" y1="9.15942" x2="4.20365" y2="17.0527" gradientUnits="userSpaceOnUse">
<stop stop-color="#717B90"/>
<stop offset="0.854167" stop-color="#5F6779"/>
</linearGradient>
<linearGradient id="paint5_linear_8630_4497" x1="11.8856" y1="9.15942" x2="11.7485" y2="17.0527" gradientUnits="userSpaceOnUse">
<stop stop-color="#717B90"/>
<stop offset="0.854167" stop-color="#5F6779"/>
</linearGradient>
</defs>
</svg>
